X:2221
T:Yn shenn dolphin 
C:Mary Gawne, Peel
C:Traditional
O:Isle of Man
Z:Clague collection
B:Kiaull Vannin #221
N:See also KV220, 387. 
L:1/4
M:6/4  
Q:100 
K:D 
FAB|=c3/2B/ A dcB|A3 FAB|=c2 AA Bc|d3d BA|
FE FA FE|DE!fermata!F GAA|FDD EDD|D3||
 
